img/headset.svg

<svg version="1.1" id="Layer_1" xmlns="http://www.w3.org/2000/svg" xmlns:xlink="http://www.w3.org/1999/xlink" x="0px" y="0px"
	 width="100%" viewBox="0 0 998 1080" enable-background="new 0 0 998 1080" xml:space="preserve">
<path fill="#FFFFFF" opacity="1.000000" stroke="none" 
	d="
M519.468628,1081.000000 
	C518.522400,1080.337036 518.132690,1079.185669 517.554382,1079.081665 
	C494.423828,1074.916382 474.684631,1054.350708 470.937622,1031.557007 
	C467.294586,1009.395630 472.484436,990.060852 489.038544,974.643127 
	C498.778992,965.571289 510.370667,959.523376 524.123352,959.023376 
	C536.368347,958.578186 548.619507,958.282715 560.869934,958.012024 
	C578.120422,957.630737 595.372742,957.067200 612.624207,957.071106 
	C631.809204,957.075500 646.311890,966.591125 657.915161,981.053345 
	C659.995972,983.646851 661.782410,984.348999 664.914795,983.614929 
	C685.706299,978.742126 705.387573,970.909851 723.889404,960.429138 
	C739.098450,951.813660 753.924072,942.391296 766.445801,929.978882 
	C776.721191,919.793152 787.282715,909.774902 796.475952,898.656006 
	C804.236633,889.269714 811.072510,878.863037 816.767639,868.088623 
	C824.087952,854.239380 830.771484,839.896240 836.022156,825.157715 
	C840.582336,812.357605 842.769897,798.711853 845.988892,785.435547 
	C846.141479,784.806213 846.049500,784.117554 846.201843,783.488098 
	C848.459167,774.164734 847.587280,772.758240 839.800781,767.926880 
	C817.184082,753.893738 802.446838,733.734375 796.237549,707.988220 
	C793.256775,695.628723 792.973755,682.830322 795.801697,670.023865 
	C797.690063,661.472168 798.263367,652.590820 798.944214,643.819702 
	C800.457092,624.330261 801.841187,604.827026 802.937256,585.310303 
	C803.614929,573.244507 804.064758,561.137878 803.891479,549.060059 
	C803.707153,536.215637 803.108398,523.341370 801.887695,510.556824 
	C800.355896,494.514648 797.889282,478.563934 796.060486,462.546997 
	C795.112854,454.247131 793.913147,445.867676 794.152954,437.562469 
	C794.703125,418.504913 801.164612,401.271637 812.552795,385.986572 
	C820.606750,375.176666 830.514587,366.318451 842.856506,358.900696 
	C836.362244,345.186951 830.073669,331.492554 823.430969,317.972107 
	C811.739197,294.174774 797.734558,271.678528 781.184082,251.070282 
	C767.900085,234.529510 753.444824,218.752182 738.156616,204.041962 
	C717.912476,184.563202 695.326599,167.951248 670.842285,153.840729 
	C644.809998,138.838089 617.444824,127.145607 588.536255,119.498985 
	C572.807678,115.338600 556.460754,113.278801 540.276489,111.158546 
	C528.881592,109.665733 517.246948,108.708542 505.798676,109.235527 
	C490.509308,109.939331 475.263794,112.058121 460.059265,114.030495 
	C438.570343,116.818077 417.810394,122.970139 397.980316,131.301804 
	C380.719543,138.553986 363.884888,147.244370 347.911377,157.014923 
	C332.508087,166.436691 317.762939,177.247498 303.994232,188.938522 
	C290.798645,200.142883 279.112854,213.148590 266.974976,225.569275 
	C252.596970,240.282272 240.818115,257.052399 229.416168,274.090424 
	C214.075424,297.014191 201.195114,321.260498 190.715897,346.765747 
	C187.249405,355.202759 184.408859,363.900482 180.827393,372.284760 
	C179.585098,375.193024 180.341599,376.645905 182.141769,378.733124 
	C194.407883,392.954926 202.533279,409.063507 205.092789,427.935333 
	C206.883453,441.138184 205.468277,453.962860 203.178802,466.947601 
	C201.424545,476.896942 201.238800,487.111664 199.957306,497.157562 
	C195.981171,528.327148 196.715378,559.651062 197.190475,590.921204 
	C197.436432,607.109375 199.516953,623.280762 201.026611,639.435608 
	C202.514938,655.362183 204.977661,671.223389 205.835587,687.176636 
	C206.905090,707.064758 200.463425,725.150940 189.093246,741.302979 
	C173.954849,762.807983 153.090744,775.591736 127.403175,781.091003 
	C107.834938,785.280151 89.211075,782.534729 71.565598,773.961365 
	C43.153736,760.156982 24.368599,737.935181 17.159830,706.951843 
	C14.192675,694.198975 12.654652,681.074829 11.090264,668.044678 
	C9.355070,653.591919 7.935898,639.076477 7.098588,624.546875 
	C6.024019,605.900146 5.490216,587.216064 5.059565,568.540283 
	C4.752674,555.231506 4.489617,541.885376 5.131243,528.600525 
	C5.905607,512.567322 7.593082,496.575745 9.008976,480.577087 
	C9.887359,470.651917 10.733520,460.711945 12.057823,450.840851 
	C14.393715,433.429504 16.139301,415.734009 24.680248,399.961548 
	C31.189821,387.940369 39.224701,377.037445 50.067532,368.190430 
	C59.337971,360.626343 69.210564,354.592468 80.532379,350.859192 
	C83.270935,349.956207 86.062729,348.076324 88.706306,348.276855 
	C93.249985,348.621521 93.479576,345.595673 94.634315,342.837433 
	C102.801231,323.329285 110.612679,303.658417 119.328712,284.397491 
	C130.751831,259.154358 145.159058,235.523193 161.126419,212.931061 
	C170.399368,199.810837 180.591614,187.317276 190.764801,174.864105 
	C198.134521,165.842697 205.584503,156.752686 214.007095,148.755264 
	C228.594788,134.903946 243.658646,121.511566 259.074341,108.584404 
	C284.798706,87.012672 313.456665,69.946777 343.792175,55.699451 
	C365.026825,45.726418 386.997101,37.590931 409.800781,32.104534 
	C427.509186,27.844019 445.418915,24.328440 463.359619,21.164967 
	C472.042542,19.633907 480.995270,19.552992 489.838654,19.034405 
	C498.247986,18.541273 506.708191,17.686302 515.085876,18.128967 
	C535.156921,19.189491 555.191711,20.350117 575.118164,23.772734 
	C599.964600,28.040403 624.150330,34.337574 647.778259,42.971527 
	C669.985840,51.086487 691.561768,60.715340 711.931824,72.659241 
	C728.444397,82.341331 744.603699,92.757164 760.158447,103.909317 
	C781.141968,118.953644 800.487122,136.088882 818.243469,154.859482 
	C834.736450,172.294556 850.040649,190.741501 864.097473,210.254700 
	C882.609680,235.952682 899.058472,262.887268 912.036743,291.723572 
	C921.557983,312.878632 929.488342,334.754974 937.894592,356.400391 
	C939.050659,359.377075 940.610718,361.236816 943.170410,363.119415 
	C962.239624,377.144135 976.631714,394.656799 981.966492,418.300262 
	C984.381042,429.001770 986.325439,439.833893 987.921936,450.689331 
	C989.912415,464.223724 991.384338,477.836304 992.952271,491.429840 
	C993.497620,496.157593 993.798706,500.924316 993.972717,505.681946 
	C994.390381,517.097290 994.666626,528.517822 995.000000,539.936279 
	C995.333313,551.354797 996.090149,562.780334 995.900146,574.190186 
	C995.619812,591.033936 995.066223,607.894653 993.883850,624.695679 
	C992.749207,640.818481 991.124207,656.939453 988.860901,672.940430 
	C986.851318,687.148010 984.609375,701.453857 980.738708,715.229858 
	C976.968445,728.648376 969.430725,740.344543 959.854675,750.872742 
	C944.411133,767.851746 925.215698,777.327148 903.176270,781.932983 
	C902.855286,782.000061 902.511902,781.953064 902.185425,782.002014 
	C899.447754,782.413147 895.787109,781.918091 894.222168,783.497314 
	C892.484680,785.250427 892.633057,788.893188 892.007080,791.723450 
	C889.365479,803.667175 886.888550,815.649475 884.078674,827.553284 
	C878.907043,849.462036 869.746826,869.909607 858.673462,889.262390 
	C850.126831,904.199219 839.715515,918.148682 829.304932,931.910522 
	C822.670898,940.680054 814.783997,948.563477 807.001831,956.389771 
	C791.209900,972.271484 773.159180,985.326965 754.090332,996.952454 
	C734.965576,1008.612000 714.589539,1017.614929 693.218933,1024.300293 
	C686.329407,1026.455444 679.234009,1027.953003 672.346313,1030.113525 
	C670.675171,1030.637573 668.605713,1032.352173 668.152649,1033.930664 
	C661.238342,1058.022217 645.025330,1072.451660 621.099609,1077.687134 
	C611.887451,1079.702881 602.002136,1078.602661 592.429321,1079.047363 
	C590.736145,1079.126099 589.071655,1079.822388 587.697021,1080.616699 
	C565.312439,1081.000000 542.624878,1081.000000 519.468628,1081.000000 
z"/>
</svg>

<svg xmlns="http://www.w3.org/2000/svg" xml:space="preserve" viewBox="0 0 998 1080"><path fill="#FFF" d="M519.469 1081c-.947-.663-1.336-1.814-1.915-1.918-23.13-4.166-42.87-24.731-46.616-47.525-3.643-22.161 1.546-41.496 18.1-56.914 9.741-9.072 21.333-15.12 35.085-15.62 12.245-.445 24.497-.74 36.747-1.011 17.25-.381 34.503-.945 51.754-.94 19.185.004 33.688 9.52 45.291 23.981 2.081 2.594 3.867 3.296 7 2.562 20.791-4.873 40.473-12.705 58.974-23.186 15.21-8.615 30.035-18.038 42.557-30.45 10.275-10.186 20.837-20.204 30.03-31.323 7.76-9.386 14.597-19.793 20.292-30.567 7.32-13.85 14.003-28.193 19.254-42.931 4.56-12.8 6.748-26.446 9.967-39.722.152-.63.06-1.318.213-1.948 2.257-9.323 1.385-10.73-6.401-15.561-22.617-14.033-37.354-34.193-43.563-59.939-2.981-12.36-3.264-25.158-.436-37.964 1.888-8.552 2.461-17.433 3.142-26.204 1.513-19.49 2.897-38.993 3.993-58.51.678-12.065 1.128-24.172.954-36.25-.184-12.844-.783-25.719-2.003-38.503-1.532-16.042-3.999-31.993-5.828-48.01-.947-8.3-2.147-16.68-1.907-24.985.55-19.057 7.012-36.29 18.4-51.575 8.054-10.81 17.962-19.669 30.304-27.086-6.495-13.714-12.783-27.408-19.426-40.929-11.692-23.797-25.696-46.293-42.247-66.902-13.284-16.54-27.74-32.318-43.027-47.028-20.245-19.479-42.83-36.09-67.315-50.201-26.032-15.003-53.397-26.695-82.306-34.342-15.728-4.16-32.075-6.22-48.26-8.34-11.394-1.493-23.03-2.45-34.477-1.923-15.29.703-30.535 2.822-45.74 4.794-21.489 2.788-42.249 8.94-62.079 17.272-17.26 7.252-34.095 15.942-50.069 25.713-15.403 9.422-30.148 20.232-43.917 31.924-13.195 11.204-24.881 24.21-37.019 36.63-14.378 14.713-26.157 31.483-37.559 48.521-15.34 22.924-28.22 47.17-38.7 72.676-3.467 8.437-6.307 17.134-9.889 25.519-1.242 2.908-.485 4.36 1.315 6.448 12.266 14.222 20.391 30.33 22.95 49.202 1.791 13.203.376 26.028-1.913 39.013-1.754 9.949-1.94 20.164-3.222 30.21-3.976 31.17-3.242 62.493-2.767 93.763.246 16.188 2.327 32.36 3.837 48.515 1.488 15.926 3.95 31.787 4.809 47.74 1.07 19.889-5.373 37.975-16.743 54.127-15.138 21.505-36.002 34.289-61.69 39.788-19.568 4.19-38.192 1.444-55.837-7.13-28.412-13.804-47.197-36.026-54.406-67.01-2.967-12.752-4.505-25.876-6.07-38.906-1.735-14.453-3.154-28.969-3.991-43.498-1.075-18.647-1.609-37.33-2.04-56.007-.306-13.308-.57-26.655.072-39.94.775-16.033 2.462-32.024 3.878-48.023.878-9.925 1.725-19.865 3.049-29.736 2.336-17.411 4.081-35.107 12.622-50.88 6.51-12.02 14.545-22.924 25.388-31.77 9.27-7.565 19.143-13.599 30.464-17.332 2.739-.903 5.53-2.783 8.174-2.582 4.544.345 4.774-2.681 5.928-5.44 8.167-19.508 15.979-39.179 24.695-58.44 11.423-25.243 25.83-48.874 41.797-71.466 9.273-13.12 19.466-25.614 29.639-38.067 7.37-9.021 14.82-18.111 23.242-26.109 14.588-13.851 29.652-27.243 45.067-40.17 25.725-21.572 54.383-38.638 84.718-52.886 21.235-9.973 43.205-18.108 66.009-23.594 17.708-4.261 35.618-7.777 53.559-10.94 8.683-1.531 17.635-1.612 26.479-2.13 8.409-.494 16.87-1.349 25.247-.906 20.07 1.06 40.106 2.221 60.032 5.644 24.847 4.267 49.032 10.565 72.66 19.199 22.208 8.114 43.784 17.743 64.154 29.687 16.512 9.682 32.672 20.098 48.226 31.25 20.984 15.045 40.33 32.18 58.085 50.95 16.493 17.436 31.798 35.883 45.854 55.396 18.513 25.698 34.961 52.632 47.94 81.469 9.521 21.155 17.451 43.031 25.858 64.676 1.156 2.977 2.716 4.837 5.275 6.72 19.07 14.024 33.462 31.537 38.796 55.18 2.415 10.702 4.36 21.534 5.956 32.39 1.99 13.534 3.462 27.146 5.03 40.74.546 4.728.847 9.494 1.02 14.252.418 11.415.695 22.836 1.028 34.254.333 11.419 1.09 22.844.9 34.254-.28 16.844-.834 33.705-2.016 50.506-1.135 16.122-2.76 32.243-5.023 48.244-2.01 14.208-4.252 28.514-8.122 42.29-3.77 13.418-11.308 25.115-20.884 35.643-15.444 16.979-34.64 26.454-56.679 31.06-.32.067-.664.02-.99.069-2.738.411-6.399-.084-7.964 1.495-1.737 1.753-1.589 5.396-2.215 8.226-2.642 11.944-5.118 23.926-7.928 35.83-5.172 21.909-14.332 42.357-25.406 61.71-8.546 14.936-18.957 28.886-29.368 42.648-6.634 8.77-14.521 16.652-22.303 24.479-15.792 15.881-33.843 28.937-52.912 40.562-19.124 11.66-39.5 20.663-60.871 27.348-6.89 2.155-13.985 3.653-20.873 5.814-1.67.524-3.74 2.238-4.193 3.817-6.915 24.091-23.128 38.52-47.053 43.756-9.213 2.016-19.098.916-28.67 1.36-1.694.08-3.358.775-4.733 1.57-22.385.383-45.072.383-68.228.383z"/></svg>
